!!!COA:	Josquin des Prez
!!!CDT:	~1450-1521/08/27
!!!COA2: La Rue, Pierre de
!!!CDT2: ~1452///-1518/11/20/
!!!OTL@@LAT:	Absalon, fili mi
!!!OTL@ENG:	Absalon, my son
!!!AGN:	Motet
!!!SCT:	NJE 14.1
!!!SCA:	New Josquin Edition 14.1
!!!voices:	4
**kern	**kern	**kern	**kern
*staff4	*staff3	*staff2	*staff1
*I"Bassus	*I"Tenor	*I"Altus	*I"Superius
*I'B	*I'T	*I'A	*I'S
*clefF4	*clefF4	*clefF4	*clefGv2
*k[b-e-a-d-]	*k[b-e-a-]	*k[b-e-]	*k[b-e-]
*M2/1	*M2/1	*M2/1	*M2/1
*met(C2)	*met(C2)	*met(C2)	*met(C2)
=1-	=1-	=1-	=1-
0r	0r	0r	0B-
=2	=2	=2	=2
0r	0r	0r	1c
.	.	.	1d
=3	=3	=3	=3
0r	0r	0E-	1e-
.	.	.	1e-
=4	=4	=4	=4
0r	0BB-	1F	0d
.	.	1G	.
=5	=5	=5	=5
0r	1C	1A-	2r
.	.	.	2c\
.	1D	1A-	1f
=6	=6	=6	=6
0EE-	1E-	0G	0g
.	1E-	.	.
=7	=7	=7	=7
1FF	1D	1r	2.f\
.	.	.	4e-\
1GG	2r	[1G	4d\
.	.	.	4c\
.	[2D\	.	2B-\
=8	=8	=8	=8
1AA-	2D\]	2G\]	0c
.	4C/	4F\	.
.	4BB-/	4E-\	.
1AA-	2C/	1F	.
.	2D\	.	.
=9	=9	=9	=9
[0GG	1E-	0G	[0B-
.	2D\	.	.
.	[2E-\	.	.
=10	=10	=10	=10
0GG]	2E-\]	1r	0B-]
.	4D\	.	.
.	4C/	.	.
.	2E-\	1G	.
.	2D\	.	.
=11	=11	=11	=11
1r	1E-	1B-	0G
1GG	1D	1B-	.
=12	=12	=12	=12
1BB-	1r	1F	2r
.	.	.	2d\
1BB-	1D	1F	1f
=13	=13	=13	=13
1FF	1F	1.A-i	1f
1FF	1F	.	1c
.	.	4G\	.
.	.	4F\	.
=14	=14	=14	=14
1.AA-	1C	1E-	1c
.	1C	2r	[1e-
4GG/	.	[2E-\	.
4FF/	.	.	.
=15	=15	=15	=15
0EE-	1.E-	2E-\]	2e-\]
.	.	2F\	4d\
.	.	.	4c\
.	.	[1G	[1B-
.	4D\	.	.
.	4C/	.	.
=16	=16	=16	=16
1r	0BB-	2G\]	1B-]
.	.	2A-i\	.
1EE-	.	2B-\	2r
.	.	2E-\	2G/
=17	=17	=17	=17
1FF	2r	1A-i	1c
.	2F\	.	.
1GG	2D\	1G	1B-
.	[2E-\	.	.
=18	=18	=18	=18
1AA-	2E-\]	0r	1E-
.	1C	.	.
1FF	.	.	1A-
.	[2D\	.	.
=19	=19	=19	=19
2.GG/	4D\]	0r	1G
.	4BB-/	.	.
.	2E-\	.	.
4AA-/	.	.	.
2BB-/	2D\	.	1r
[2C/	[2E-\	.	.
=20	=20	=20	=20
4C/]	4E-\]	0r	0r
4BB-/	4D\	.	.
1BB-	4C/	.	.
.	4BB-/	.	.
.	1C	.	.
2AAni/	.	.	.
=21	=21	=21	=21
1BB-	1BB-	1F	1r
1GG	2r	1G	1B-
.	2BB-/	.	.
=22	=22	=22	=22
1FF	1F	1A-i	1c
1r	1D	1B-	1d
=23	=23	=23	=23
0r	1C	2G\	1e-
.	.	1A-i	.
.	1F	.	1c
.	.	[2F\	.
=24	=24	=24	=24
0r	1BB-	2F\]	2.d\
.	.	2B-\	.
.	.	.	4e-\
.	1r	2A-i\	2f\
.	.	[2B-\	[2g\
=25	=25	=25	=25
2r	0r	4B-\]	2g\]
.	.	4A-i\	.
2AA-/	.	4G\	1f
.	.	4F\	.
2BB-/	.	1G	.
2C/	.	.	2eni\
.	.	.	.
=26	=26	=26	=26
2FF/	0r	2.F\	1f
2BB-/	.	.	.
.	.	4G\	.
2AA-/	.	4A-i\	1r
.	.	4F\	.
[2BB-/	.	2G\	.
=27	=27	=27	=27
2BB-/]	0r	2F\	0r
4AA-/	.	1A-i	.
4GG/	.	.	.
2FF/	.	.	.
2EE-/	.	[2G\	.
=28	=28	=28	=28
1GG	2r	4G\]	1e-
.	.	4F\	.
.	1BB-	1E-	.
1FF	.	.	1f
.	2AA-/	2D\	.
=29	=29	=29	=29
1EE-	2BB-/	1E-	1g
.	2B-\	.	.
1r	2A-\	1r	2f\
.	2B-\	.	[2g\
=30	=30	=30	=30
1r	2B-\	2r	2g\]
.	4A-\	2B-\	4f\
.	4G\	.	4e-\
2r	2F\	2A-i\	2a-\
[2EE-/	2E-\	[2B-\	[2g\
=31	=31	=31	=31
4EE-/]	1G	4B-\]	4g\]
4FF/	.	4A-i\	4f\
2GG/	.	2B-\	1e-
2AA-/	1F	2c\	.
2BB-/	.	2B-\	2d\
=32	=32	=32	=32
1EE-	2.E-\	2.G\	1e-
.	4F\	4A-i\	.
2r	2G\	4B-\	2d\
.	.	4G\	.
[2FF/	2C/	[2A-i\	[2c\
=33	=33	=33	=33
4FF/]	1F	4A-\]	2c\]
4GG/	.	4G\	.
2AA-/	.	1F	4B-\
.	.	.	4A-i/
2BB-/	1G	.	1G
2C/	.	2Eni\	.
=34	=34	=34	=34
0FF	2.A-\	0F	2F/
.	.	.	2c\
.	4G\	.	.
.	4F\	.	2d\
.	4E-\	.	.
.	[2F\	.	[2c\
=35	=35	=35	=35
1FF	2F\]	1F	4c\]
.	.	.	4B-\
.	4E-\	.	1B-
.	4D\	.	.
1FF	1C	1F	.
.	.	.	2A/
=36	=36	=36	=36
0BB-	2r	2.D\	1B-
.	2.BB-/	.	.
.	.	4E-\	.
.	.	4F\	1r
.	4C/	4E-\	.
.	4D\	4F\	.
.	4E-\	4G\	.
=37	=37	=37	=37
1r	2F\	2A\	1d
.	4BB-/	2B-\	.
.	4C/	.	.
1BB-	4D\	2F\	1d
.	4E-\	.	.
.	[2F\	[2B-\	.
=38	=38	=38	=38
1C	2F\]	2B-\]	1e-
.	2E-\	2A\	.
1BB-	2G\	1B-	[1d
.	[2F\	.	.
=39	=39	=39	=39
1BB-	4F\]	1r	2d\]
.	4E-\	.	.
.	4D\	.	2d\
.	4C/	.	.
1GG	1BB-	1B-	1d
=40	=40	=40	=40
1AA-	1r	1c	2r
.	.	.	1e-
1BB-	1F	1B-	.
.	.	.	2d\
=41	=41	=41	=41
1.EE-	1.G	1B-	0e-
.	.	1G	.
[2E-\	4F\	.	.
.	4E-\	.	.
=42	=42	=42	=42
2E-\]	1F	1A-i	1f
2Dni\	.	.	.
1E-	2.E-\	1B-	[1g
.	4F\	.	.
=43	=43	=43	=43
1C	4G\	1E-	2g\]
.	4A-\	.	.
.	1G	.	4f\
.	.	.	4e-\
[1BB-	.	1B-	2d\
.	4F\	.	[2f\
.	4E-\	.	.
=44	=44	=44	=44
1BB-]	2D\	2r	4f\]
.	.	.	4e-\
.	2.F\	2.B-\	4d\
.	.	.	4c\
1BB-	.	.	[1B-
.	4E-\	4A-i\	.
.	4D\	4G\	.
.	4C/	4F\	.
=45	=45	=45	=45
0BB-	2BB-/	2.G\	1B-]
.	1E-	.	.
.	.	8F\L	.
.	.	8E-\J	.
.	.	1F	1r
.	2D\	.	.
=46	=46	=46	=46
1r	1E-	2.E-\	0B-
.	.	4D\	.
1EE-	2r	2C/	.
.	[2E-\	2BB-/	.
=47	=47	=47	=47
1AA-	2E-\]	1AA-	1c
.	2E-\	.	.
1GG	1E-	2r	1B-
.	.	2BB-/	.
=48	=48	=48	=48
1FF	3%2FV	2C/	1A-i
.	.	2C/	.
.	3%2C	.	.
1FF	.	1AA-i	2G/
.	3%2DZ	.	.
.	.	.	2F/
=49	=49	=49	=49
[0EE-	0E-	1C	[0G
.	.	1BB-	.
=50	=50	=50	=50
0EE-]	1C	1r	0G]
.	2.BB-/	1E-	.
.	4C/	.	.
=51	=51	=51	=51
0r	2D-\	1A-i	0r
.	1C	.	.
.	.	1G	.
.	[2BB-/	.	.
=52	=52	=52	=52
0DD-	2BB-/]	1F	0A-i
.	4AA-/	.	.
.	4GG/	.	.
.	2AA-/	1F	.
.	2BB-/	.	.
=53	=53	=53	=53
1EE-	1C	2.E-\	1G
.	.	4F\	.
1EE-	2.BB-/	1G	1B-
.	4C/	.	.
=54	=54	=54	=54
2.FF/	4D\	1F	1.A-i
.	4E-\	.	.
.	1F	.	.
4GG/	.	.	.
4AA-/	.	1r	.
4BB-/	.	.	.
[2C/	[2E-\	.	2G/
=55	=55	=55	=55
4C/]	4E-\]	0r	1G
4BB-/	4D\	.	.
1BB-	4C/	.	.
.	4BB-/	.	.
.	1C	.	1r
2AAni/	.	.	.
=56	=56	=56	=56
0BB-	0BB-	0D-	0B-
=57	=57	=57	=57
1EE-	1.BB-	1E-	1G
1GG	.	1E-	1B-
.	2C/	.	.
=58	=58	=58	=58
[0FF	1D-	2.F\	1A-i
.	.	4G\	.
.	1C	4A-i\	2F/
.	.	4B-\	.
.	.	[2c\	[2f\
=59	=59	=59	=59
0FF]	1F	4c\]	2f\]
.	.	4B-\	.
.	.	1B-	4e-\
.	.	.	4d\
.	1r	.	4c\
.	.	.	4B-\
.	.	2A\	2c\
=60	=60	=60	=60
1BB-	1F	1B-	1B-
1r	[1F	1BB-	1f
=61	=61	=61	=61
1BB-	2F\]	1r	1.f
.	1D	.	.
[1BB-	.	1B-	.
.	2BB-/	.	[2d\
=62	=62	=62	=62
2BB-/]	1BB-	1.B-	2d\]
1GG	.	.	2B-\
.	2r	.	1B-
2EE-/	2BB-/	[2G\	.
=63	=63	=63	=63
1EE-	1.E-	2G\]	2r
.	.	2E-\	2B-\
2r	.	1E-	[1e-
2EE-/	[2C/	.	.
=64	=64	=64	=64
1.AA-	2C/]	2r	2e-\]
.	2AA-/	2E-\	1c
.	1AA-	[1A-i	.
[2FF/	.	.	2A-i/
=65	=65	=65	=65
2FF/]	2AA-/	2A-\]	1A-i
2DD-/	2.D-\	1F	.
1DD-	.	.	[1d-i
.	4E-\	.	.
.	2F\	2D-i\	.
=66	=66	=66	=66
0GG-	0BB-	1D-i	2d-\]
.	.	.	2c\
.	.	2E-\	1B-
.	.	[2D-i\	.
=67	=67	=67	=67
0FF	0F	2D-\]	2A-i/
.	.	4C/	1B-
.	.	4BB-/	.
.	.	1C	.
.	.	.	2Ani/
=68	=68	=68	=68
0r	1G-i	0BB-	0B-
.	1F	.	.
=69	=69	=69	=69
0DD-	2.FF/	1F	1r
.	4GG/	.	.
.	2AA-/	1F	1A-i
.	2BB-/	.	.
=70	=70	=70	=70
1EE-	1C	2.E-\	1G
.	.	4F\	.
1EE-	2.BB-/	1G	1B-
.	4C/	.	.
=71	=71	=71	=71
2.FF/	4D\	1F	1.A-i
.	4E-\	.	.
.	1F	.	.
4GG/	.	.	.
4AA-/	.	1r	.
4BB-/	.	.	.
[2C/	[2E-\	.	2G/
=72	=72	=72	=72
4C/]	4E-\]	0r	1G
4BB-/	4D\	.	.
1BB-	4C/	.	.
.	4BB-/	.	.
.	1C	.	1r
2AAni/	.	.	.
=73	=73	=73	=73
0BB-	0BB-	0D-i	0B-
=74	=74	=74	=74
1EE-	1.BB-	1E-	1G
1GG	.	1E-	1B-
.	2C/	.	.
=75	=75	=75	=75
[0FF	1D-	2.F\	1A-i
.	.	4G\	.
.	1C	4A-i\	2F/
.	.	4B-\	.
.	.	[2c\	[2f\
=76	=76	=76	=76
0FF]	1F	4c\]	2f\]
.	.	4B-\	.
.	.	1B-	4e-\
.	.	.	4dni\
.	1r	.	4c\
.	.	.	4B-\
.	.	2A\	2c\
=77	=77	=77	=77
1BB-	1F	1B-	1B-
1r	[1F	1BB-	1f
=78	=78	=78	=78
1BB-	2F\]	1r	1.f
.	1D	.	.
[1BB-	.	1B-	.
.	2BB-/	.	[2d\
=79	=79	=79	=79
2BB-/]	1BB-	1.B-	2d\]
1GG	.	.	2B-\
.	2r	.	1B-
2EE-/	2BB-/	[2G\	.
=80	=80	=80	=80
1EE-	1.E-	2G\]	2r
.	.	2E-\	2B-\
2r	.	1E-	[1e-
2EE-/	[2C/	.	.
=81	=81	=81	=81
1.AA-	2C/]	2r	2e-\]
.	2AA-/	2E-\	1c
.	[1AA-	[1A-i	.
[2FF/	.	.	2A-i/
=82	=82	=82	=82
2FF/]	2AA-/]	2A-\]	1A-i
2DD-/	2.D-\	1F	.
1DD-	.	.	[1d-i
.	4E-\	.	.
.	2F\	2D-i\	.
=83	=83	=83	=83
0GG-	0BB-	1D-i	2d-\]
.	.	.	2c\
.	.	2E-\	2.B-\
.	.	[2D-i\	.
.	.	.	8A-i/L
.	.	.	8B-/J
=84	=84	=84	=84
0FF	0F	2D-\]	2A-i/
.	.	4C/	1B-
.	.	4BB-/	.
.	.	1C	.
.	.	.	2Ani/
=85	=85	=85	=85
0BBB-l	0Fl	0BB-l	0B-l
==	==	==	==
*-	*-	*-	*-
!!!RDF**kern: %=rational rhythm
!!!rscale-alt: 1/2
!!!RDF**kern: V=start of tuplet marker
!!!RDF**kern: Z=end of tuplet marker
!!!RDF**kern: l=long note in original notation
!!!RDF**kern: i=editorial accidental
!!!ENC: Victoria Chang
!!!END: 2011/03/15/
!!!EED: Jesse Rodin
!!!EEV: 2011/04/07/
!!attribution-level@Jos: 3 (tricky)
!!attribution-level@Rue: 5 (attributed)
!!!ONB: Translated from MusicXML and edited on 2011/04/06/ by Craig Sapp
!!muse2ps:  C^Josquin?/La Rue?\n@{SCT}^v90,90,90,150I100Q16
!!onb: changed rest-quarter to half note in Bassus m25 [2011/04/07/]
